lib/logo_tmp/nrk-logo-nrk-p3-x.svg

<svg width="74" height="24" viewBox="0 0 74 24" fill="none" xmlns="http://www.w3.org/2000/svg">
<path d="M73.143 18.0018L69.0002 11.7424L72.785 6.00183H70.8916L68.142 10.5714L65.1256 6.00183H63.0449L66.932 11.8258L62.8572 18.0015H64.7847L67.8184 13.0697L71.079 18.0015L73.143 18.0018Z" fill="white"/>
<path d="M46.4809 6H42.7773C42.7773 6 44.8819 9.45485 44.9056 9.49833C44.9849 9.59824 45.0292 9.72144 45.0317 9.84898C45.0342 9.97652 44.9948 10.1013 44.9194 10.2043L42.7773 13.7156H46.4815C46.4815 13.7156 48.2678 10.7947 48.5121 10.3892C48.6279 10.2339 48.6897 10.0448 48.688 9.85105C48.6862 9.65725 48.6209 9.46938 48.5022 9.3162C48.2387 8.8675 48.2382 8.8678 46.4809 6Z" fill="white"/>
<path d="M42.2987 6.00004H39V18.0013H42.2987V6.00004Z" fill="white"/>
<path d="M58.082 7.98821C57.9575 7.77586 56.8551 6 56.8551 6H48.9272L50.659 8.90479H54.8347L53.1122 11.7285L55.0324 14.9547L53.1792 18.0004H56.5637C57.1079 17.1103 57.9214 15.7335 58.0914 15.4514C58.2079 15.2955 58.2701 15.1056 58.2683 14.9109C58.2665 14.7163 58.2009 14.5276 58.0815 14.3738C57.9121 14.0847 57.0056 12.6471 56.464 11.7621C56.464 11.7621 57.9214 9.34727 58.0914 9.06517C58.2079 8.90937 58.2701 8.71966 58.2684 8.52512C58.2667 8.33058 58.2012 8.14196 58.082 7.98821Z" fill="white"/>
<path d="M50.4562 12.1185C49.9344 12.9707 49.0619 14.399 48.8984 14.6774C48.7833 14.8255 48.72 15.0072 48.7183 15.1948C48.7166 15.3823 48.7765 15.5652 48.8888 15.7154C49.0525 15.987 49.9319 17.4266 50.4562 18.285C50.9803 17.4274 51.8599 15.9879 52.0234 15.7154C52.1357 15.5652 52.1956 15.3823 52.1939 15.1948C52.1922 15.0073 52.129 14.8255 52.0141 14.6774C51.8506 14.399 50.9778 12.9707 50.4562 12.1185Z" fill="white"/>
<path d="M6.10352e-05 18.0018V6.00292H3.93725V18.0018H6.10352e-05ZM9.29387 7.91261L11.5581 18.0018H7.24923L4.54555 6.00292H6.96224C7.51641 5.99573 8.05412 6.19108 8.47456 6.55222C8.89568 6.89821 9.18501 7.37853 9.29387 7.91261ZM12.1496 18.0018V6.00292H16.0868V18.0018H12.1496ZM19.0605 10.5659C18.6363 10.5701 18.2188 10.4591 17.8526 10.2448C17.4913 10.036 17.1912 9.73579 16.9823 9.37443C16.7678 9.00816 16.6568 8.59059 16.661 8.16615C16.6562 7.74429 16.7673 7.32921 16.9823 6.96626C17.1934 6.60882 17.4932 6.31192 17.8526 6.10435C18.2189 5.89033 18.6363 5.77935 19.0605 5.78321C19.4823 5.77867 19.8972 5.88976 20.2603 6.10435C20.6161 6.31374 20.9127 6.61039 21.1221 6.96626C21.3369 7.32931 21.448 7.74432 21.4434 8.16615C21.4473 8.59056 21.3363 9.00806 21.1221 9.37443C20.9149 9.73421 20.618 10.0341 20.2603 10.2448C19.8972 10.4598 19.4819 10.5709 19.06 10.5659H19.0605ZM22.0517 18.0018V6.00292H25.9892V18.0018H22.0517ZM30.9738 12.5601C30.9849 12.5717 31.0693 12.7097 31.2272 12.9741C31.3851 13.2385 31.5907 13.5765 31.844 13.9881C32.0975 14.3995 32.3649 14.8361 32.6464 15.2978C32.9278 15.7596 33.1927 16.1962 33.4409 16.6076C33.6882 17.019 33.9698 17.4838 34.2858 18.0018H29.9599C29.6893 17.5624 29.4442 17.1653 29.2245 16.8104C29.0049 16.4555 28.7714 16.0724 28.5239 15.6612C28.2759 15.2503 28.0307 14.8504 27.7883 14.4613C27.5459 14.0722 27.3376 13.7314 27.1633 13.4389C26.9883 13.1461 26.8671 12.949 26.7997 12.8474C26.6326 12.5953 26.5337 12.3041 26.5127 12.0024C26.5295 11.7128 26.6227 11.4328 26.7828 11.1909C26.8504 11.0783 26.9743 10.8783 27.1546 10.591C27.3348 10.3037 27.5461 9.96288 27.7883 9.56855C28.0305 9.17423 28.2757 8.77144 28.5239 8.36021C28.7721 7.94898 29.0056 7.56307 29.2245 7.20254C29.4446 6.84238 29.6897 6.44242 29.9599 6.00265H34.2858L30.9397 11.4613C30.8361 11.6234 30.7778 11.8102 30.7707 12.0024C30.7818 12.2042 30.8523 12.3981 30.9732 12.5601H30.9738Z" fill="white"/>
</svg>

<svg xmlns="http://www.w3.org/2000/svg" viewBox="0 0 74 24"><path fill="#fff" d="M73.143 18.002 69 11.742l3.785-5.74h-1.893l-2.75 4.57-3.016-4.57h-2.081l3.887 5.824L62.857 18h1.928l3.033-4.931L71.08 18h2.064ZM46.48 6h-3.703s2.105 3.455 2.129 3.498a.582.582 0 0 1 .013.706l-2.142 3.512h3.704s1.787-2.921 2.031-3.327a.887.887 0 0 0-.01-1.073c-.263-.449-.264-.448-2.021-3.316ZM42.299 6H39v12.001h3.299V6ZM58.082 7.988A324.935 324.935 0 0 0 56.855 6h-7.928l1.732 2.905h4.176l-1.723 2.824 1.92 3.226L53.18 18h3.385c.544-.89 1.357-2.267 1.527-2.549a.89.89 0 0 0-.01-1.077c-.169-.29-1.075-1.727-1.617-2.612l1.627-2.697a.889.889 0 0 0-.009-1.077Z"/><path fill="#fff" d="M50.456 12.118c-.522.853-1.394 2.281-1.558 2.56a.856.856 0 0 0-.01 1.037l1.568 2.57c.524-.858 1.404-2.297 1.567-2.57a.856.856 0 0 0-.009-1.038 388.314 388.314 0 0 0-1.558-2.559ZM0 18.002v-12h3.937v12H0Zm9.294-10.09 2.264 10.09H7.25l-2.703-12h2.416a2.276 2.276 0 0 1 1.513.55c.42.346.71.827.819 1.36Zm2.856 10.09v-12h3.937v12H12.15Zm6.91-7.436a2.382 2.382 0 0 1-2.4-2.4 2.303 2.303 0 0 1 .322-1.2 2.411 2.411 0 0 1 3.278-.862c.356.21.653.506.862.862.215.363.326.778.321 1.2a2.4 2.4 0 0 1-1.183 2.079 2.303 2.303 0 0 1-1.2.32Zm2.992 7.436v-12h3.937v12h-3.937Zm8.922-5.442c.01.012.095.15.253.414s.364.602.617 1.014a327.152 327.152 0 0 1 1.597 2.62c.247.411.529.876.845 1.394H29.96c-.27-.44-.516-.837-.736-1.192-.22-.354-.453-.738-.7-1.149-.248-.41-.493-.81-.736-1.2-.242-.389-.45-.73-.625-1.022-.175-.293-.296-.49-.363-.592a1.75 1.75 0 0 1-.287-.845c.016-.29.11-.57.27-.811.067-.113.191-.313.372-.6a181.843 181.843 0 0 0 1.37-2.23c.247-.412.48-.798.7-1.158l.735-1.2h4.326L30.94 11.46a1.079 1.079 0 0 0-.17.541c.012.202.082.396.203.558Z"/></svg>
